X:59
T:B059-  Celia, that I once was blessed
Q:1/4=120
L:1/4
M:4/4
K:Gm
BGdD|(GA3/4B/4)A3/2B/2|(cd3/4)e/4 (e/2d/2) (c/2B/2)|\
(d/2A/2) (B/2G/2)G2|| d3/2g/2fd|(c/4d/4e) d/2cF|\
B3/2d/2 (c/2A/2) (B/2F/2)|(G/2B/2) (c/2B/2)B2|\
=B3/2 B/2cc|(B/2A/2) (B/2G/2)^FD|\
(d/2f/2) (g/2f/2) (e/2d/2) (c/2B/2)|\
(A/2c/2) (d/2c/2) B (A/2G/2)|=B3/2 B/2cc|\
(B/2A/2) (B/2G/2)^FD|\
(d/2f/2) (g/2f/2) (e/2d/2) (c/2B/2)|\
(A/2c/2) (d/2c/2) B (A/2G/2)|]

